icons/Django.svg

<svg width="256" height="256" viewBox="0 0 256 256" fill="none" xmlns="http://www.w3.org/2000/svg">
<rect width="256" height="256" rx="60" fill="#092E20"/>
<path d="M112.689 51H141.304V183.45C126.625 186.237 115.848 187.352 104.143 187.352C69.2093 187.351 51 171.559 51 141.271C51 112.098 70.3253 93.1471 100.24 93.1471C104.885 93.1471 108.415 93.5175 112.689 94.6323V51ZM112.689 117.671C109.345 116.558 106.558 116.186 103.028 116.186C88.5346 116.186 80.1725 125.105 80.1725 140.712C80.1725 155.95 88.163 164.311 102.842 164.311C105.999 164.311 108.602 164.125 112.689 163.569V117.671Z" fill="white"/>
<path d="M186.826 95.1893V161.522C186.826 184.378 185.154 195.34 180.137 204.817C175.491 213.923 169.359 219.682 156.724 226L130.153 213.364C142.788 207.419 148.92 202.218 152.821 194.225C156.91 186.05 158.212 176.573 158.212 151.675V95.1893H186.826ZM158.212 51.1519H186.826V80.5102H158.212V51.1519Z" fill="white"/>
</svg>

<svg xmlns="http://www.w3.org/2000/svg" width="256" height="256" fill="none" viewBox="0 0 256 256"><rect width="256" height="256" fill="#092E20" rx="60"/><path fill="#fff" d="M112.69 51h28.61v132.45c-14.68 2.79-25.45 3.9-37.16 3.9-34.93 0-53.14-15.8-53.14-46.08 0-29.17 19.33-48.12 49.24-48.12 4.65 0 8.18.37 12.45 1.48zm0 66.67a28 28 0 0 0-9.66-1.48c-14.5 0-22.86 8.92-22.86 24.52 0 15.24 8 23.6 22.67 23.6 3.16 0 5.76-.19 9.85-.74z"/><path fill="#fff" d="M186.83 95.19v66.33c0 22.86-1.68 33.82-6.7 43.3-4.64 9.1-10.77 14.86-23.4 21.18l-26.58-12.64c12.64-5.94 18.77-11.14 22.67-19.14 4.09-8.17 5.4-17.65 5.4-42.54v-56.5zM158.2 51.15h28.62v29.36H158.2z"/></svg>
